X: 1412
T: Müberka Sazsemâîsi
C: ?
O: Turkey
F: http://compmusic.upf.edu/node/140
N: muberka--sazsemaisi--aksaksemai----
N: makam= muberka
N: form= sazsemaisi
N: usul= aksaksemai = 10/8
M: 10/8
L: 1/16
K: C _B   
Q: 1/4=168
%%MIDI tuningsystem comma53
A4 A2B2 c2BA G2A4z2  | G4 c2B2 A2B2 G2A4B2  | \
w:  1. HANE  |   | 
c4 B2cB cdd2 _e2d4c2  | 
w:   | 
d_e2d c2B2 A2BA2Bc4z2  | G4 F2G3FE2 F2G4z2  | \
w:   |  MÜLÂZİME  | 
c4 B2d2 cdc2 B2A4z2  | 
w:   | 
B4 A2c2 BcB2 A2G4z2  | A4 G2B2 ABA2 G2F4z2  | \
w:   |   | 
G4 F2A2 GAG2 F2E4z2  | 
w:   | 
F2E2 FGAG FEED ^C2D4z2  | A4 G2A3GA2 B2c4z2  | 
w:   |  2. HANE  | 
_d2c2 d4 cBBA G2A4z2  | B4 c2d4_e2 c2d4z2  | \
w:   |   | 
c2d2 _e2^1/4f2 e2e2 c2d4z2  | 
w:   | 
a4 g2a3c'b2 a2g4z2  | ^f2g2 a2b2 a2g2 f2_e2 d2c2  | \
w:   |   | 
d4 c2B4cd c2d4z2  | 
w:   | 
_e4 d2c3ed2 c2B4z2  | ABAB c2d2 c2B2 A2G4z2  | \
w:   |   | 
A4 G2A3GA2 B2c4z2  | 
w:  2. HANE  | 
_d2c2 d4 cBBA G2A4z2  | B4 c2d4_e2 c2d4z2  | \
w:   |   | 
c2d2 _e2^1/4f2 e2e2 c2d4z2  | 
w:   | 
a4 g2a3c'b2 a2g4z2  | ^f2g2 a2b2 a2g2 f2_e2 d2c2  | \
w:   |   | 
d4 c2B4cd c2d4z2  | 
w:   | 
_e4 d2c3ed2 c2B4z2  | ABAB c2d2 c2B2 A2G4z2  | \
w:   |   | 
G4 F2G3FE2 F2G4z2  | 
w:  MÜLÂZİME  | 
c4 B2d2 cdc2 B2A4z2  | B4 A2c2 BcB2 A2G4z2  | \
w:   |   | 
A4 G2B2 ABA2 G2F4z2  | 
w:   | 
G4 F2A2 GAG2 F2E4z2  | F2E2 FGAG FEED ^C2D4z2  | 
w:   |   | 
D4 E2F2 G2AG FED4^C2  | DED2 E2FG F2GA G2A4z2  | 
w:  3. HANE  |   | 
B4 A2G4F2 G2A4z2  | A4 G2A3GA2 B2c4z2  | \
w:   |   | 
c4 B2c3Bd2 cBA4z2  | 
w:   | 
B4 A2B2 A2B2 c2d4z2  | d4 c2d3cd2 e2f4z2  | \
w:   |   | 
d4 e2fg f2ga g2a4z2  | 
w:   | 
b4 a2bc' bab2 g2a4z2  | g4 a2bc' b2c'd' c'2d'4z2  | \
w:   |   | 
d'4 c'2b3d'c'2 b2a4z2  | 
w:   | 
c'4 b2a3c'b2 a2g4z2  | b4 a2g3ba2 g2f4z2  | \
w:   |   | 
f4 g2f2 e2d2 ^c2d4z2  | 
w:   | 
c4 _e2d2 c2B2 A2G4z2  | G4 F2G3FE2 F2G4z2  | \
w:   |  MÜLÂZİME  | 
c4 B2d2 cdc2 B2A4z2  | 
w:   | 
B4 A2c2 BcB2 A2G4z2  | A4 G2B2 ABA2 G2F4z2  | \
w:   |   | 
G4 F2A2 GAG2 F2E4z2  | 
w:   | 
F2E2 FGAG FEED ^C2D4z2  | z12  | E2F2D2E2F2G2  | \
w:   |  |  4. HANE  | 
E2F2G2A2F2G2  | 
w:   | 
A4z2z2A2c2  | B2A2G2B2A2G2  | F2A2G2F2E2G2  | \
w:   |   |   | 
F2E2D2D2z4  | 
w:   | 
E2F2E2D2E2z2  | F2G2A2A2z4  | d2c2d2z2B2z2  | \
w:   |   |   | 
c2B2c2c2A4  | 
w:   | 
B2c2B2A2B4  | c4d2d2z4  | _e2d2e2c2d4  | \
w:   |   |   | 
_e4^f2f2z4  | g2^f2_e2d2f2e2  | 
w:   |   | 
d2c2e2c2d4  | c2d2c2B2c2d2  | c2B2A2A2G4  | \
w:   |   |   | 
c2B2A2G2B2A2  | 
w:   | 
G2F2G2G2z4  | z20  | G4 F2G3FE2 F2G4z2  | \
w:   |  |  MÜLÂZİME  | 
c4 B2d2 cdc2 B2A4z2  | 
w:   | 
B4 A2c2 BcB2 A2G4z2  | A4 G2B2 ABA2 G2F4z2  | \
w:   |   | 
G4 F2A2 GAG2 F2E4z2  | 
w:   | 
F2E2 FGAG FEED ^C2D4z2  | |


